X:31
T:Going Green
R:waltz
C:Olov Johansson
M:3/4
G:G instrument - whistle
P:G whistle: 3x + 1A (don't play A1B1 play C1 | play tune A2 ...)
K:G
%%transpose 12
"G"G3A BG | "C"c2B2G2 | "D"G2 A2 F2 | "G"G4 D2 | "Am7"E2 EA, EG | "Bm7"F2 FA, FA | "Em/C"GA B2 AG | "D"A6 | 
"G"G3A BG | "Am7"c2B2G2 | "D/F#"G2 A2 F2 | "G/E"G4 "D"D2 | "Em/C"E3 D C2 | "Bm7"D2 A,B, C2 | "Am7"B,2 G,2 "D"A,F, |1 "G"G,4 z2 :|2 "G"G,4 ||
d2 | "C"e3d cB | "D"AG AB cd | "G"B2 G2 D2 | "C"E4 d2 | "Am7"e3d cB | "D"AG AB cd | "G"B6 | "G"B2 "Am7"c2 "Bm7"d2 | 
     "C"e3d cB | "D"AG AB cd | "G/"B2 G2 "G/D"D2 | "Em/C"E4 DC | "Bm7"B,D G4 | "D"A3 F D2 | "C"G2 GA "D"GF |1 "G"G4 d2 :|2 "G"G6 || 
"C"CB, CD EF | G2 F2 A2 | "D"D6- | D6 | "C"CB, CD EF | G2 F2 D2 | "D"A6- | A6 | 
"C"CB, CD EF | G2 F2 A2 | "D"D6- | D6 | "C"CB, CD EF | G2 F2 D2 | "D"A4 AB | "Em"c2 B2 "D/F#"A2 |]

